X: 80
T:Croesawiad Gwraig y Ty
T:A Welcome to the Housewife
M:6/8
L:1/8
Q:130
C:Trad
S:Blodau'r Grug Collection Vol. 3
A:Wales
Z:brian_martin12345@yahoo.com
K:D
ded cBA|BcB AGF|GAG FED|E3E3|FEF DEF|A^GA Bcd|!
cBA EA^G|A3A3:||
cBA ABc|d3F2z|GFG BAG|!G3F2z|ABA GAG|FGF EAG|FED CDE|D3D2z:||

